!!!!SEGMENT: Mou2001-Benedicta_es_celorum_regina.krn
!!!id: Mou2001
!!!AGN: Motet
!!!SCT: CRIM
!!!voices: 4
!!!COM: Jean Mouton
!!!OTL: Benedicta es celorum regina
**kern	**kern	**kern	**kern
*part4	*part3	*part2	*part1
*staff4	*staff3	*staff2	*staff1
*I"Bassus	*I"Tenor	*I"Altus	*I"Superius
*I'B	*I'T	*I'A	*I'S
*clefF4	*clefGv2	*clefGv2	*clefG2
*k[]	*k[]	*k[]	*k[]
*C:	*C:	*C:	*C:
*M2/1	*M2/1	*M2/1	*M2/1
*met(C|)	*met(C|)	*met(C|)	*met(C|)
!!section: Prima pars: Benedicta es celorum regina
!!!OMD: Prima pars: Benedicta es celorum regina
=1	=1	=1	=1
0r	1r	0G	0d
.	[1G	.	.
=2	=2	=2	=2
0r	1G]	0B	1d
.	1G	.	1e
=3	=3	=3	=3
0r	1A	0c	1e
.	1A	.	[1f
=4	=4	=4	=4
0r	1.B	1.d	2f]
.	.	.	4e
.	.	.	4d
.	.	.	1d
.	4A	4c	.
.	4G	4B	.
=5	=5	=5	=5
0r	1G	1B	0e
.	[1A	1c	.
=6	=6	=6	=6
1D	1A]	2A	1r
.	.	2.d	.
[1G	1r	.	1d
.	.	4c	.
.	.	4B	.
.	.	4A	.
=7	=7	=7	=7
2G]	1G	2B	1g
2E	.	2c	.
2F	1c	2A	2f
2C	.	[2G	[2e
=8	=8	=8	=8
1D	2B	2G]	2e]
.	1A	2F	1d
1E	.	1G	.
.	[2G	.	2c
=9	=9	=9	=9
1D	2G]	1A	0d
.	2F#i	.	.
1r	[1G	2r	.
.	.	[2B	.
=10	=10	=10	=10
1E	1G]	2B]	0r
.	.	1c	.
1F	1r	.	.
.	.	2A	.
=11	=11	=11	=11
2D	0r	2A	0r
2D	.	2F	.
2C	.	1G	.
2BB	.	.	.
=12	=12	=12	=12
1C	1r	2G	1e
.	.	1A	.
1D	1A	.	1f
.	.	[2D	.
=13	=13	=13	=13
1GG	1B	2D]	1d
.	.	2.d	.
2r	1G	.	2r
.	.	4c	.
2GG	.	2B	2d
=14	=14	=14	=14
2AA	2r	2A	2c
2GG	2G	2B	2B
1AA	2F	[1A	1c
.	2E	.	.
=15	=15	=15	=15
1D	1F	1A]	1d
1GG	1G	[1B	1d
=16	=16	=16	=16
1r	1G	1B]	0r
1D	1r	2.A	.
.	.	4B	.
=17	=17	=17	=17
0E	0r	2c	1r
.	.	1d	.
.	.	.	1e
.	.	2c#i	.
=18	=18	=18	=18
1D	1A	1d	0f
1r	[1B	2r	.
.	.	2D	.
=19	=19	=19	=19
1GG	1B]	1G	2e
.	.	.	2d
1AA	2A	1E	1c
.	2G	.	.
=20	=20	=20	=20
1BB-X	1F	1D	1d
1GG	1G	1r	1d
=21	=21	=21	=21
2r	1G	1r	1r
1G	.	.	.
.	1r	1A	[1d
2F	.	.	.
=22	=22	=22	=22
1G	0G	1B	1d]
2.C	.	1c	1e
4E	.	.	.
=23	=23	=23	=23
1D	1A	2A	1f
.	.	4G	.
.	.	4F	.
1GG	1B	2G	1d
.	.	[2d	.
=24	=24	=24	=24
0r	1G	2d]	0e
.	.	4c	.
.	.	4B	.
.	[1A	1c	.
=25	=25	=25	=25
1D	1A]	2r	1d
.	.	2d	.
1E	1G	2B	1r
.	.	[2c	.
=26	=26	=26	=26
1.F	0r	4c]	0r
.	.	4B	.
.	.	4A	.
.	.	4G	.
.	.	2A	.
2D	.	2B	.
=27	=27	=27	=27
1E	0r	2G	1r
.	.	2B	.
1C	.	2c	[1g
.	.	[2e	.
=28	=28	=28	=28
2r	0c	4e]	1g]
.	.	4d	.
2E	.	4c	.
.	.	4B	.
2F	.	2.A	1f
[2A	.	.	.
.	.	4G	.
=29	=29	=29	=29
2A]	1B	1E	1e
2G	.	.	.
1A	1A	2.c	1e
.	.	4B	.
=30	=30	=30	=30
2D	1A	4A	1d
.	.	4G	.
2F	.	1d	.
1E	1G	.	2r
.	.	2c	2e
=31	=31	=31	=31
1D	2r	1d	1f
.	2A	.	.
2r	1B	1r	2d
2D	.	.	2d
=32	=32	=32	=32
1E	2G	2r	2c
.	2G	2G	2B
1AA	2F	1A	1c
.	2E	.	.
=33	=33	=33	=33
2r	1F	1D	1d
2A	.	.	.
1B	1G	2r	1d
.	.	2d	.
=34	=34	=34	=34
2G	1G	2d	0r
2G	.	2B	.
2F	1r	2.c	.
2E	.	.	.
.	.	4B	.
=35	=35	=35	=35
2.F	0r	4A	1r
.	.	4G	.
.	.	1d	.
4G	.	.	.
1A	.	.	1e
.	.	2c#i	.
=36	=36	=36	=36
1D	1A	0d	1.f
1r	[1B	.	.
.	.	.	2e
=37	=37	=37	=37
0r	2B]	1r	2d
.	2A	.	2c
.	2G	2r	1d
.	2F	2A	.
=38	=38	=38	=38
1r	1G	1.B	1d
1GG	1G	.	1r
.	.	2A	.
=39	=39	=39	=39
2BB	0r	2G	0r
2C	.	4F	.
.	.	4E	.
1D	.	2F	.
.	.	[2A	.
=40	=40	=40	=40
2C	0r	2A]	0r
2BB	.	1G	.
1AA	.	.	.
.	.	2F#i	.
=41	=41	=41	=41
1GG	1r	1G	1.g
1r	[1c	1r	.
.	.	.	2f
=42	=42	=42	=42
0C	2c]	1G	2e
.	2B	.	2d
.	2A	2c	1e
.	2G	[2c	.
=43	=43	=43	=43
1AA	0A	4c]	1e
.	.	4B	.
.	.	4A	.
.	.	4G	.
1D	.	2.F	1d
.	.	4E	.
=44	=44	=44	=44
1E	1G	4C	1r
.	.	4D	.
.	.	2.E	.
1C	1r	.	[1g
.	.	4F	.
.	.	2G	.
=45	=45	=45	=45
1r	1.c	1C	2g]
.	.	.	2f
[1C	.	1G	2e
.	2B	.	2d
=46	=46	=46	=46
1C]	2A	2c	0e
.	2G	2.c	.
1AA	[1A	.	.
.	.	4B	.
.	.	4A	.
.	.	4G	.
=47	=47	=47	=47
1D	1A]	2.F	1d
.	.	4E	.
1E	1G	4C	1r
.	.	4D	.
.	.	[2E	.
=48	=48	=48	=48
1C	0r	4E]	1r
.	.	4F	.
.	.	2G	.
2r	.	1C	[1e
2G	.	.	.
=49	=49	=49	=49
1A	0A	2r	1e]
.	.	1c	.
2F	.	.	2.f
2F	.	2c	.
.	.	.	4e
=50	=50	=50	=50
2G	1B	2B	1d
2D	.	1d	.
1E	1G	.	1r
.	.	2c	.
=51	=51	=51	=51
1D	1r	2B	1.d
.	.	2A	.
1r	[1G	2.B	.
.	.	.	2c
.	.	8AL	.
.	.	8GJ	.
=52	=52	=52	=52
1GG	2G]	2.d	1B
.	2F	.	.
.	.	4B	.
2C	1E	2e	1c
2E	.	[2c	.
=53	=53	=53	=53
1D	1F	2c]	1d
.	.	2B	.
1C	1G	1c	2r
.	.	.	[2e
=54	=54	=54	=54
0r	2r	1A	2e]
.	1A	.	2f
.	.	1r	2e
.	2B	.	2d
=55	=55	=55	=55
1r	2A	1r	2c
.	2G	.	2d
2r	2F	2r	1d
[2GG	2G	[2B	.
=56	=56	=56	=56
2GG]	1G	2B]	0r
2GG	.	2B	.
1C	1r	2A	.
.	.	2G	.
=57	=57	=57	=57
2D	0r	2F	1r
2E	.	2G	.
1C	.	1G	[1e
=58	=58	=58	=58
1AA	0A	1c	1e]
1D	.	[1d	[1f
=59	=59	=59	=59
0BB-X	1.B-i	2d]	2f]
.	.	2e	2e
.	.	1f	1d
.	2A	.	.
=60	=60	=60	=60
1C	1G	1e	1.c
2AA	[1F	2r	.
[2D	.	[2A	2d
=61	=61	=61	=61
2D]	2F]	2A]	0d
2GG	2G	2B	.
1GG	[1G	1B	.
=62	=62	=62	=62
1C	1G]	2r	1r
.	.	1c	.
2.C	1r	.	2r
.	.	2c	[2g
4D	.	.	.
=63	=63	=63	=63
2E	2r	2B	2g]
2F	1c	2A	2f
2C	.	1G	2e
[2G	2B	.	2e
=64	=64	=64	=64
2G]	2A	1D	1d
2F	2A	.	.
2.E	1G	2r	1r
.	.	[2c	.
4D	.	.	.
=65	=65	=65	=65
2.C	1r	2c]	2r
.	.	2c	1g
4D	.	.	.
2E	2r	2B	.
2F	[2c	2A	2f
=66	=66	=66	=66
2C	2c]	2.G	2e
1G	2B	.	2e
.	.	4F	.
.	2A	2D	1d
2F	2A	[2d	.
=67	=67	=67	=67
2E	1G	2d]	2r
2E	.	2c	2e
1D	2r	1d	1f
.	2A	.	.
=68	=68	=68	=68
1r	1B	2r	1d
.	.	2d	.
2r	1G	1d	1r
2G	.	.	.
=69	=69	=69	=69
1G	1r	1B	1d
1E	1G	2r	2c
.	.	2G	2B
=70	=70	=70	=70
1r	2F	2A	1c
.	2E	2G	.
1D	1F	2A	1d
.	.	4G	.
.	.	4F	.
=71	=71	=71	=71
2C	1G	2E	1r
2BB	.	2D	.
1C	1r	2.G	[1e
.	.	4F	.
=72	=72	=72	=72
1C	0A	1E	1e]
1D	.	1D	[1f
=73	=73	=73	=73
1r	1.B-X	0d	2f]
.	.	.	2e
1G	.	.	1d
.	2A	.	.
=74	=74	=74	=74
2E	1G	1e	1c
2E	.	.	.
1D	1F	1A	1d
=75	=75	=75	=75
1GG	1G	1B	1d
[1C	1G	2.c	1r
.	.	4B	.
=76	=76	=76	=76
1C]	1r	2.A	0e
.	.	4G	.
1AA	[1A	1c	.
=77	=77	=77	=77
1D	1A]	1F	1.f
[1BB-X	[1B-i	1r	.
.	.	.	2e
=78	=78	=78	=78
2BB-]	2B-]	1G	1d
4C	2A	.	.
4D	.	.	.
1E	1G	1G	1c
=79	=79	=79	=79
1D	1F	1A	0d
[1GG	[1G	[1B	.
=	=	=	=
00GG]	1G]	00B]	00d
.	00G	.	.
1ryy	.	1ryy	1ryy
=||	=||	=||	=||
*M2/1	*M2/1	*M2/1	*M2/1
*met(C|)	*met(C|)	*met(C|)	*met(C|)
!!section: Secunda pars: Per illud ave 
!!!OMD: Secunda pars: Per illud ave
!	!	!	!LO:TX:a:t=Secunda pars&colon; Per illud ave 
1D	0r	0r	0r
[1F	.	.	.
=80	=80	=80	=80
1F]	0r	1A	0r
1F	.	[1c	.
=81	=81	=81	=81
1F	0r	1c]	0r
2E	.	1c	.
[2F	.	.	.
=82	=82	=82	=82
4F]	0r	1c	0r
4E	.	.	.
4D	.	.	.
4C	.	.	.
2D	.	2B	.
2E	.	[2c	.
=83	=83	=83	=83
1AA	1A	4c]	1r
.	.	4B	.
.	.	4A	.
.	.	4G	.
1r	[1c	1A	1e
=84	=84	=84	=84
1.C	1c]	1G	0g
.	1c	1E	.
2D	.	.	.
=85	=85	=85	=85
2E	1c	2.G	1g
2F	.	.	.
.	.	4A	.
2G	2B	2B	1g
2C	[2c	2G	.
=86	=86	=86	=86
2D	4c]	2d	2f
.	4B	.	.
2E	4A	2c	2.g
.	4G	.	.
1D	1A	1d	.
.	.	.	4f
.	.	.	4e
.	.	.	4d
=87	=87	=87	=87
1GG	0G	1.B	1e
1G	.	.	[1d
.	.	4A	.
.	.	4G	.
=88	=88	=88	=88
2F	0r	2A	1d]
2.G	.	2.B	.
.	.	.	1r
4F	.	4A	.
4E	.	[2d	.
4D	.	.	.
=89	=89	=89	=89
1E	1r	2d]	0r
.	.	2c#i	.
1D	1A	2d	.
.	.	4cny	.
.	.	4B	.
=90	=90	=90	=90
1r	0c	4A	1e
.	.	4G	.
.	.	2A	.
[1C	.	1G	[1g
=91	=91	=91	=91
2C]	1c	1E	1g]
2D	.	.	.
2E	1c	2.G	1g
2F	.	.	.
.	.	4A	.
=92	=92	=92	=92
2G	2B	2B	1g
2C	2.c	2G	.
2D	.	2d	2f
.	4B	.	.
2E	4A	2c	[2g
.	4G	.	.
=93	=93	=93	=93
1D	1A	1d	4g]
.	.	.	4f
.	.	.	4e
.	.	.	4d
1GG	[1G	[1B	1e
=94	=94	=94	=94
1G	1G]	2B]	0d
.	.	4A	.
.	.	4G	.
2F	1r	2A	.
2G	.	2B	.
=95	=95	=95	=95
2D	1A	2A	1r
2F	.	1d	.
1E	2B	.	1e
.	2G	2c	.
=96	=96	=96	=96
1D	2.A	1d	2f
.	.	.	2d
.	4B	.	.
2AA	2A	1c	2.e
[2C	[2G	.	.
.	.	.	4f
=97	=97	=97	=97
2C]	2G]	2r	2e
2D	2F	1B	1d
1E	1G	.	.
.	.	4A	2c
.	.	4G	.
=98	=98	=98	=98
1D	0r	1A	1d
[1GG	.	[1d	1r
=99	=99	=99	=99
2GG]	0G	2d]	1r
2AA	.	2c	.
2BB	.	1B	[1d
2C	.	.	.
=100	=100	=100	=100
1D	0F	[0A	1d]
1AA	.	.	[1c
=101	=101	=101	=101
1AA	1.E	1A]	1c]
[1E	.	2.G	[1B
.	2F	.	.
.	.	4F	.
=102	=102	=102	=102
2E]	1G	1E	2B]
4D	.	.	2c
4C	.	.	.
2BB	1G	4D	1d
.	.	4C	.
2GG	.	[2G	.
=103	=103	=103	=103
1D	2r	2G]	1d
.	2A	2F	.
1GG	1B	2.G	2r
.	.	.	2e
.	.	4F	.
=104	=104	=104	=104
2r	1A	2D	1f
2D	.	2.d	.
2E	2G	.	1e
.	.	4B	.
2C	[2G	2c	.
=105	=105	=105	=105
1D	2G]	1A	2d
.	2F	.	1d
1E	1G	2r	.
.	.	2e	2c
=106	=106	=106	=106
4D	0r	1f	1d
4E	.	.	.
4F	.	.	.
4G	.	.	.
2A	.	1e	1r
2G	.	.	.
=107	=107	=107	=107
2D	0r	2d	0r
2F	.	1d	.
1E	.	.	.
.	.	2c	.
=108	=108	=108	=108
1D	1A	2d	1r
.	.	4c	.
.	.	4B	.
1r	[1c	4A	1e
.	.	4G	.
.	.	2A	.
=109	=109	=109	=109
1C	1c]	1G	0g
[1C	1c	1e	.
=110	=110	=110	=110
2C]	1c	1.e	1g
2D	.	.	.
1E	2B	.	1g
.	2G	4d	.
.	.	4c	.
=111	=111	=111	=111
1D	0A	1d	2f
.	.	.	2d
2AA	.	1c	[1e
[2C	.	.	.
=112	=112	=112	=112
4C]	0G	1c	1e]
4D	.	.	.
4E	.	.	.
4F	.	.	.
4G	.	2B	[1d
4A	.	.	.
[2G	.	2G	.
=113	=113	=113	=113
2G]	0r	1A	1d]
2F	.	.	.
2E	.	2.G	1r
4D	.	.	.
4C	.	4A	.
=114	=114	=114	=114
2.D	0r	2B	0r
.	.	1A	.
4C	.	.	.
2BB	.	.	.
2GG	.	[2G	.
=115	=115	=115	=115
1D	1A	2G]	1r
.	.	2F#i	.
[1C	[1c	1G	1e
=116	=116	=116	=116
1C]	1c]	1r	0g
[1C	1c	1e	.
=117	=117	=117	=117
2C]	1c	1.e	1g
2D	.	.	.
1E	2B	.	1g
.	2G	4d	.
.	.	4c	.
=118	=118	=118	=118
1D	1A	1d	2f
.	.	.	2d
2AA	1A	1c	[1e
[2C	.	.	.
=119	=119	=119	=119
4C]	0G	1c	1e]
4D	.	.	.
4E	.	.	.
4F	.	.	.
2.G	.	[1B	[1d
4F	.	.	.
=120	=120	=120	=120
2D	1r	2B]	1d]
1G	.	2G	.
.	2r	1A	1r
2F	2A	.	.
=121	=121	=121	=121
2G	1.B	1G	2r
2E	.	.	2e
[1D	.	[1d	[1f
.	4A	.	.
.	4G	.	.
=122	=122	=122	=122
2D]	1A	2d]	2f]
2AA	.	4c	4e
.	.	4B	4d
1C	[1G	1c	1e
=123	=123	=123	=123
1GG	1G]	0B	0d
2r	1r	.	.
[2G	.	.	.
=124	=124	=124	=124
2G]	0r	2r	0r
2F	.	1d	.
2E	.	.	.
2F	.	2c	.
=125	=125	=125	=125
2G	0r	2B	0r
1A	.	2c	.
.	.	2d	.
[2G	.	[2e	.
=126	=126	=126	=126
2G]	0r	4e]	0r
.	.	4d	.
2F	.	1d	.
2G	.	.	.
2E	.	2c#i	.
=127	=127	=127	=127
2D	2r	2d	1r
2GG	1G	2B	.
2.D	.	[1A	2r
.	2F	.	[2d
4C	.	.	.
=128	=128	=128	=128
1AA	2E	1A]	2d]
.	2F	.	2c
1r	2G	2r	2B
.	[2A	[2F	2c
=129	=129	=129	=129
2r	2A]	2F]	2d
1C	1G	2G	1e
.	.	1A	.
2D	2F#i	.	[2d
=130	=130	=130	=130
1E	1G	1G	2d]
.	.	.	2c#i
1D	1r	2r	1d
.	.	2A	.
=131	=131	=131	=131
2r	0r	1B	0r
2E	.	.	.
2F	.	2A	.
[2E	.	2G	.
=132	=132	=132	=132
2E]	2r	2G	1r
2D	2A	2F	.
2D	2B	1E	2r
2C	[2A	.	2e
=133	=133	=133	=133
2D	2A]	2r	2f
2E	2G	2B	1e
2C	2G	2c	.
2D	2F	[2B	2d
=134	=134	=134	=134
1E	1G	4B]	2d
.	.	4A	.
.	.	1G	2c#i
[1D	1r	.	1d
.	.	4F	.
.	.	4E	.
=135	=135	=135	=135
1D]	0A	2.F	1r
.	.	4G	.
2r	.	1A	[1e
[2A	.	.	.
=136	=136	=136	=136
2A]	1B	1E	1e]
2G	.	.	.
2F	[1A	1c	1f
4E	.	.	.
4D	.	.	.
=137	=137	=137	=137
2.C	2A]	1.c	1.e
.	2G	.	.
4D	.	.	.
4E	1G	.	.
4F	.	.	.
2G	.	4B	2d
.	.	4A	.
=138	=138	=138	=138
2D	1F	2B	1d
2F	.	1A	.
1E	1G	.	1c
.	.	[2G	.
=139	=139	=139	=139
1D	0A	2G]	1d
.	.	2F	.
2.AA	.	[1c	[1e
4BB	.	.	.
=140	=140	=140	=140
1C	1G	1c]	1e]
1GG	1r	[1B	1d
=141	=141	=141	=141
1r	0G	0B]	1r
1GG	.	.	[1d
=142	=142	=142	=142
1GG	1G	2r	1d]
.	.	2G	.
2.D	2.A	2F	1d
.	.	2D	.
4C	4B	.	.
=143	=143	=143	=143
4AA	4c	1A	2.e
4BB	4d	.	.
1C	1c	.	.
.	.	.	4f
.	.	2G	4g
.	.	.	4a
2GG	2B	2d	[2g
=144	=144	=144	=144
2C	1A	4e	2g]
.	.	4d	.
2D	.	4c	2f
.	.	4B	.
2.E	1G	4A	1e
.	.	4G	.
.	.	2c	.
4F	.	.	.
=145	=145	=145	=145
1G	1r	[0B	1d
1r	[1G	.	1r
=146	=146	=146	=146
1GG	1G]	1B]	0d
1GG	1G	2r	.
.	.	2G	.
=147	=147	=147	=147
2.D	2.A	2F	1d
.	.	2D	.
4C	4B	.	.
4AA	4c	1A	2.e
4BB	4d	.	.
4C	[2c	.	.
4D	.	.	4f
=148	=148	=148	=148
2C	2c]	2G	4g
.	.	.	4a
2GG	2B	2d	1g
2C	1A	2e	.
2D	.	4d	2f
.	.	4c	.
=149	=149	=149	=149
2.E	[0Gl	4B	1e
.	.	4A	.
.	.	2c	.
4F	.	.	.
1G	.	1B	[1dl
=150	=150	=150	=150
00GGl	00G]	00Bl	00d]
==	==	==	==
*-	*-	*-	*-
!!!system-decoration: [*]
!!!RDF**kern: i = editorial accidental
!!!RDF**kern: l = terminal long
!!!ENC: Benjamin Ory
!!!END: 2021/4/22
!!!EED: Benjamin Ory
!!!EEV: 2021/05/02
!!!YEC: Copyright 2021 Benjamin Ory, All Rights Reserved
!!!ONB: Translated from MusicXML on 2021/05/02
